X:111
T:Theodore. THO5.111, The
M:C|
L:1/8
N:Dot added to crotchet to correct timing error
B:Thompson's Complete Collection of 200 Favourite Dances Vol.5
F:https://www.libraryofdance.org/manuals/1780c-Thompson-Compleat-5.pdf
U:w=!wedge!
Z:vmp. Peter Dunk 2024
Q:1/4=140
K:A
e4|c2A2d2f2|f2e2a4|{b/}a2 gf e2d2|d2c2 e4|
c2A2d2f2|f2e2a4|B2 df e2G2|!fine!A4:|
c3d/c/|B2E2c3d/e/|B2E2 c3d/c/|B2E2 "^NB"c3 ^d/e/|B4 ^A-BwBwB|
^B-cwcwc e-^dwdwd|f-ewewe f-gwawa|agaf fee^d|{^d2}e4!D.C.!|]
W:
W:The 1st Couple set to the 2nd Ladt & turn ./.
W:the same to the 2nd Gent ./:
W:Lead down the middle, up again & cast off :/.
W:Hands six round :/:

